X:8007
T:Hunsdon House
R:Jig
C:Trad. Playford
O:England
M:6/8
L:1/8
Q:1/8=220
K:D
"D"D2A F2B|"D"AF2 "A"E2D|"Bm"d2f "A"ec2|"E7"B3 "A"A3:|
|:"F#m"a2g fc2|"Bm"d2c Bef|"Em"g2f ec2|"A7"B3 ABc|
"Bm"d2c BF2|"Em"G2F EBc|"Bm"def "Em"g2f|"A7"e3 "D"d3:|

